!!!OTL: The Miller
!!!ONM: 94.
**kern
*clefG2
*k[f#c#]
*D:
*M3/4
*MM80
{4d
=1
8a
8a
8a
8a
4f#
=2
8e
8d
4d}
{4a
=3
8dd
8dd
4dd
4a
=4
8b
8a
4a}
{4a
=5
8dd
8dd
4dd
4d
=6
8f#
8a
4dd}
{4a
=7
8dd
8b
4a
4f#
=8
8f#
8a
2d}
=9||
{4d
4f#
4a
=10
2dd}
{8.f#
16e
=11
8d
8d
4c#
4d}
==
*-
!!!CNT: Folksongs of Maritime Canada
!!!MRD: 1928///-1932///
!!!OCL: Helen Creighton
!!!YOR: Songs and Ballads from Nova Scotia
!!!PPR: J.M. Dent & Sons, Limited
!!!PPP: Toronto, Canada
!!!PDT: 1932///
!!!reprint: Dover Publications, 1992: ISBN 0-486-21703-5
!!!ENC1: Craig Stuart Sapp (music and bibliographic data)                       
!!!ENC2: Marcus Pearce (phrase markings and key designations)                   
!!!ENC3: Darrell Conklin (phrase markings and key designations)   
!!!END: 2002/04/10/
!!!EEV: 2004/06/05
!!!MPN: Mrs. William McNab
!!!PPG: 203
!!!EFL: 95/152
!!!ARE: Canada; Nova Scotia
!!!verses: 10
!!!VTS: 1434116444
